X: 7
T: Cathleen Hehir's
Z: ceili
S: https://thesession.org/tunes/157#setting49425
R: slide
M: 12/8
L: 1/8
K: Dmaj
|:"D"dcd e2d c2E EFG|"G"B/B/BB BAG "D"F2D DFA|
"D"dcd e2d c2E EFG|1 "A"ABA "G"GFE "D"D/D/DD DFA:|2 "A"ABA "G"GFE "D"D/D/DD D2E||
|:"D"F2A d/d/dd "A"c2B "G"G3|"A"ABA "G"G2E B2A F3|
"D"DFA d/d/dd "A"c2B "G"G2F|"A"EFG ABc "D"d/d/dd d2A:|
|:"D"d/d/dd d2e f2d A3|"A"f/f/ff fed "Em"c2d ecA|
"D"d/d/dd d2e f2d A2F|1 "G"EFG "A"ABc "D"d/d/dd d2 A:|2 "G"EFG "A"ABc "D" d/d/dd dfg||
|:"D"a2f f/f/fd "A"Adf agf|"G"g2e "Em"e/e/ec "G"Bcd efg|
"D"a2f f/f/fd "A"Adf agf|"G"gec "A"ABc "D"d/d/dd dfg:|

